X: 37051
T: The Quarry Weel
C: J. Stanley Hamilton
R: reel
B: RSCDS 37-5
N: The Quarry Weel is a salmon pool on the River Ayr.
Z: 1997 by John Chambers <jc:trillian.mit.edu>
M: C|
L: 1/8
K: A
   CB,| "A"A,CEA CEAc | EAce Acea | "D"fedc "Bm"dcBA |1,3 "B7"GBAF "E7"ED :|2,4 "E7"EAGB "A"A2 :|
|: cd | "A"ecAc eAce | agfe "(A7)"fedc | "D"fedc "Bm"dcBA |1 "B7"GBAF "E7"E2 :|2 "E7"EAGB "A"A2 |]
y2 cd | "A"ecAc eAce | agfe fedc | "D"fedc "Bm"dcBA | "B7"GBAF "E7"EDCB, |
y4 y  | "A"A,CEA CEAc | EAce Acea | "D"fedc "Bm"dcBA | "E7"EAGB "A"A2 |]
%%center Book37/37051-Quarry_Weel-JC.abc

%%sep 1 1 500
%%sep 1 1 500

